packages/core/src/svgs/tokens/mono/GLEEC.svg

<svg width="24" height="24" viewBox="0 0 24 24" fill="none" xmlns="http://www.w3.org/2000/svg">
<path d="M10.4211 2H13.579V4.63159C15.9474 4.63159 18.5842 6.11212 19.2085 8.84213H16.3369C15.7906 7.44581 14.5279 7.26318 12.9821 7.26318L11.0168 7.25107C8.98213 7.25107 7.26265 8.46739 7.26265 10.5715V13.4284C7.26318 15.5327 9.04423 16.7368 11.079 16.7368H12.9211C14.9559 16.7368 16.6053 15.1569 16.6053 13.0526H8.84213V10.4211H19.3685V13.4284C19.3685 16.8474 16.6053 19.3685 13.579 19.3685V22H10.4211V19.3685C7.26318 19.3685 4.63159 16.8474 4.63159 13.4284V10.5715C4.63159 7.15265 7.26318 4.63159 10.4211 4.63159V2Z" fill="white"/>
</svg>

<svg xmlns="http://www.w3.org/2000/svg" width="24" height="24" fill="none" viewBox="0 0 24 24">
    <path fill="#fff" d="M10.421 2h3.158v2.632c2.368 0 5.005 1.48 5.63 4.21h-2.872c-.546-1.396-1.81-1.579-3.355-1.579l-1.965-.012c-2.035 0-3.754 1.216-3.754 3.32v2.857c0 2.105 1.781 3.309 3.816 3.309h1.842c2.035 0 3.684-1.58 3.684-3.684H8.842V10.42H19.37v3.007c0 3.42-2.764 5.94-5.79 5.94V22h-3.158v-2.631c-3.158 0-5.79-2.522-5.79-5.94v-2.857c0-3.42 2.632-5.94 5.79-5.94z"/>
</svg>
